X:1
T:Jesus, lover of my soul
T:Jesus, lover of my soul - Marshfield (Thomas Clark)
C:Thomas Clark
Z:Text: Charles Wesley (modified
Z:version as given in A Third Set)
%%score [ 1 2 3 4 ]
L:1/8
M:4/4
K:E
V:1 treble nm="Soprano" snm="S."
V:2 treble nm="Alto" snm="A."
V:3 treble-8 transpose=-12 nm="Tenor" snm="T."
V:4 bass nm="Bass" snm="B."
V:1
 E2 G2 (Be)(dc) | B2 A2 G4 | (FG)(AF) (GA) (B/c/=d) | (cB)(AG) (G2 F2) | B3 A G2 c2 | %5
w: Thou, O Christ, _ art _|all I want;|All _ in _ all _ in _ _|thee _ I _ find: _|Raise the fal- len,|
w: Je- sus, lo- * ver _|of my soul,|Let _ me _ to _ thy _ _|bo- * som _ fly; _|While the ra- ging|
w: O- ther re- * fuge _|have I none,|Hangs _ my _ help- * less _ _|soul _ on _ thee! _|Leave, ah, leave me|
 (FG) A2 (G/F/G/A/ B2) | e3 B (AG)(FE) | B2 ^A2 B4 |:!p! F2 G2 A2 (GF) | E2 F2 G4 | %10
w: cheer _ the faint, _ _ _ _|Heal the sick, _ and _|lead the blind:|Just and ho- ly _|is thy name,|
w: bil- * lows roll, _ _ _ _|While the tem- * pest _|still is high.|Hide me, O my _|Sa- viour, hide,|
w: not _ a- lone, _ _ _ _|Still sup- port _ and _|com- fort me.|All my trust on _|thee is stay’d;|
 c2 ^B2 (ce)(df) | e2 d2 c4 |!f! B2 e2 A2 (GF) | G2 ^A2 B4 | B2 e2 c3 e | f2 e2 (e2 d2) | %16
w: I am all _ un- *|right- eous- ness;|Vile and full of _|sin I am,|Thou art full of|truth and grace, _|
w: Till the storm _ of _|life is past;|Safe in- to the _|ha- ven guide,|O re- ceive my|soul at last, _|
w: All my help _ from _|thee I bring:|Co- ver my de- *|fence- less head|With the sha- dow|of thy wing, _|
 (Be)(dc) (BG) (FG/A/) | G2 F2 E4 :| %18
w: thou _ art _ full _ of _ _|truth and grace.|
w: O _ re- * ceive _ my _ _|soul at last.|
w: with _ the _ sha- * dow _ _|of thy wing.|
V:2
 E2 E2 E2 E2 | E2 D2 E4 | (DE)(FD) (EF) G2 | (AG)(FE) (E2 D2) | E2 D2 E2 E2 | E2 D2 E4 | %6
w: Thou, O Christ, art|all I want;|All _ in _ all _ in|thee _ I _ find: _|Raise the fal- len,|cheer the faint,|
w: Je- sus, lo- ver|of my soul,|Let _ me _ to _ thy|bo- * som _ fly; _|While the ra- ging|bil- lows roll,|
w: O- ther re- fuge|have I none,|Hangs _ my _ help- * less|soul _ on _ thee! _|Leave, ah, leave me|not a- lone,|
 G3 F E2 (DE) | F2 E2 D4 |:"^["!p!"^]" D2 E2 F2 (ED) | (EB,) D2 E4 | G2 G2 G2 A2 | G2 G2 G4 | %12
w: Heal the sick, and _|lead the blind:|Just and ho- ly _|is _ thy name,|I am all un-|right- eous- ness;|
w: While the tem- pest _|still is high.|Hide me, O my _|Sa- * viour, hide,|Till the storm of|life is past;|
w: Still sup- port and _|com- fort me.|All my trust on _|thee _ is stay’d;|All my help from|thee I bring:|
"^["!f!"^]" E2 E2 E2 (ED) | E2 E2 F4 | G2 G2 E3 E | A2 G2 (G2 F2) | E2 E2 E2 E2 | E2 D2 E4 :| %18
w: Vile and full of _|sin I am,|Thou art full of|truth and grace, _|thou art full of|truth and grace.|
w: Safe in- to the _|ha- ven guide,|O re- ceive my|soul at last, _|O re- ceive my|soul at last.|
w: Co- ver my de- *|fence- less head|With the sha- dow|of thy wing, _|with the sha- dow|of thy wing.|
V:3
 B2 B2 B2 F2 | G2 B2 B4 | B2 B2 (BA)(GB) | c2 c2 B4 | G2 B2 B2 c2 | B2 B2 (B>A G2) | B3 B B2 (Be) | %7
w: Thou, O Christ, art|all I want;|All in all _ in _|thee I find:|Raise the fal- len,|cheer the faint, _ _|Heal the sick, and _|
w: Je- sus, lo- ver|of my soul,|Let me to _ thy _|bo- som fly;|While the ra- ging|bil- lows roll, _ _|While the tem- pest _|
w: O- ther re- fuge|have I none,|Hangs my help- * less _|soul on thee!|Leave, ah, leave me|not a- lone, _ _|Still sup- port and _|
 d2 c2 B4 |:!p! B2 e2 d2 (BA) | G2 B2 B4 | e2 d2 (ec) c2 | c2 ^B2 c4 |!f! G2 B2 A2 B2 | B2 c2 d4 | %14
w: lead the blind:|Just and ho- ly _|is thy name,|I am all _ un-|right- eous- ness;|Vile and full of|sin I am,|
w: still is high.|Hide me, O my _|Sa- viour, hide,|Till the storm _ of|life is past;|Safe in- to the|ha- ven guide,|
w: com- fort me.|All my trust on _|thee is stay’d;|All my help _ from|thee I bring:|Co- ver my de-|fence- less head|
 e2 B2 A3 B | c2 c2 B4 | G2 A2 B2 c2 | B2 A2 G4 :| %18
w: Thou art full of|truth and grace,|thou art full of|truth and grace.|
w: O re- ceive my|soul at last,|O re- ceive my|soul at last.|
w: With the sha- dow|of thy wing,|with the sha- dow|of thy wing.|
V:4
 E,2 E,2"^6" G,2"^65" A,2 |"^64" B,2"^75" B,,2 E,4 | %2
w: Thou, O Christ, art|all I want;|
w: Je- sus, lo- ver|of my soul,|
w: O- ther re- fuge|have I none,|
"^53""^64" B,,2"^7" B,,2"^83""^94" E,2"^U" E,2 |"^83""^72" A,2"^86""^75" A,2"^64""^53" B,4 | %4
w: All in all in|thee I find:|
w: Let me to thy|bo- som fly;|
w: Hangs my help- less|soul on thee!|
 E,2"^8""^7" B,,2 E,2 A,,2 |"^54""^6-" B,,2"^7" B,,2 E,4 | E,3"^6" D,"^4""^3" E,2"^64" (F,"^6"G,) | %7
w: Raise the fal- len,|cheer the faint,|Heal the sick, and _|
w: While the ra- ging|bil- lows roll,|While the tem- pest _|
w: Leave, ah, leave me|not a- lone,|Still sup- port and _|
"^64" F,2"^7#" F,2 B,,4 |:"^["!p!"^]" B,,2"^64" B,,2"^7" B,,2"^64""^73" B,,2 | %9
w: lead the blind:|Just and ho- ly|
w: still is high.|Hide me, O my|
w: com- fort me.|All my trust on|
"^64" B,,2"^53" B,,2 E,4 | C,2"^#" G,2 C2"^65" F,2 |"^64" G,2"^5#" G,,2 C,4 | %12
w: is thy name,|I am all un-|right- eous- ness;|
w: Sa- viour, hide,|Till the storm of|life is past;|
w: thee is stay’d;|All my help from|thee I bring:|
"^["!f!"^]" E,2"^6" G,2"^7" F,2"^64""^53" B,2 | %13
w: Vile and full of|
w: Safe in- to the|
w: Co- ver my de-|
"^Notes:The order of staves in the source is Tenor - [Alto] - Air - [Bass], with the alto part printed in the treble clef an octave abovesounding pitch. The first verse only of the text is underlaid in the source: a further three verses are printed after the music, andhave here been added editorially." E,2"^´" C,2 B,,4 | %14
w: sin I am,|
w: ha- ven guide,|
w: fence- less head|
 E,2 E,2 A,3"^6" G, | F,2"^7" ^A,2"^64""^53" B,4 | E,2"^7" F,2"^6" G,2"^65" A,2 | %17
w: Thou art full of|truth and grace,|thou art full of|
w: O re- ceive my|soul at last,|O re- ceive my|
w: With the sha- dow|of thy wing,|with the sha- dow|
"^64" B,2"^75" B,,2 E,4 :| %18
w: truth and grace.|
w: soul at last.|
w: of thy wing.|

